;FLAVOR:Marlin
;TIME:2434
;Filament used: 1.78334m
;Layer height: 0.15
;MINX:97.175
;MINY:88.256
;MINZ:0.2
;MAXX:152.825
;MAXY:121.1
;MAXZ:23
;TARGET_MACHINE.NAME:Prusa i3 Mk3/Mk3s
;Generated with Cura_SteamEngine 5.8.1
M82 ;absolute extrusion mode
G21 ; set units to millimeters
G90 ; use absolute positioning
M82 ; absolute extrusion mode
M104 S200 ; set extruder temp
M140 S60 ; set bed temp
M190 S60 ; wait for bed temp
M109 S200 ; wait for extruder temp
G28 W ; home all without mesh bed level
G80 ; mesh bed leveling
G92 E0.0 ; reset extruder distance position
G1 Y-3.0 F1000.0 ; go outside print area
G1 X60.0 E9.0 F1000.0 ; intro line
G1 X100.0 E21.5 F1000.0 ; intro line
G92 E0.0 ; reset extruder distance position
G92 E0
G92 E0
G1 F2100 E-0.8
;LAYER_COUNT:153
;LAYER:0
M107
G0 F3600 X98.31 Y89.896 Z0.2
;TYPE:SKIRT
G1 F2100 E0
G1 F1800 X98.753 Y89.539 E0.01892
G1 X99.246 Y89.256 E0.03783
G1 X99.752 Y89.058 E0.0559
G1 X100.529 Y88.921 E0.08214
G1 X101.863 Y88.841 E0.12659
G1 X104.621 Y88.643 E0.21856
G1 X108.143 Y88.275 E0.33634
G1 X108.648 Y88.256 E0.35315
G1 X109.24 Y88.323 E0.37296
G1 X110.761 Y88.626 E0.42455
G1 X113.441 Y89.114 E0.51515
G1 X116.109 Y89.521 E0.60491
G1 X118.84 Y89.859 E0.69644
G1 X121.556 Y90.117 E0.78718
G1 X124.263 Y90.298 E0.87742
G1 X127.012 Y90.405 E0.96892
G1 X129.746 Y90.432 E1.05986
G1 X132.412 Y90.383 E1.14854
G1 X135.193 Y90.254 E1.24114
G1 X137.894 Y90.051 E1.33123
G1 X140.614 Y89.77 E1.42218
G1 X143.308 Y89.415 E1.51255
G1 X146.163 Y88.955 E1.60874
G1 X146.739 Y88.901 E1.62798
G1 X148.564 Y88.9 E1.68868
G1 X149.262 Y88.909 E1.7119
G1 X149.86 Y88.968 E1.73188
G1 X150.41 Y89.114 E1.75081
G1 X150.93 Y89.345 E1.76973
G1 X151.406 Y89.653 E1.78859
G1 X151.829 Y90.034 E1.80753
G1 X152.186 Y90.477 E1.82645
G1 X152.469 Y90.969 E1.84533
G1 X152.671 Y91.501 E1.86425
G1 X152.786 Y92.058 E1.88317
G1 X152.824 Y92.74 E1.90589
G1 X152.825 Y116.809 E2.70643
G1 X152.816 Y117.536 E2.73061
G1 X152.758 Y118.133 E2.75056
G1 X152.612 Y118.683 E2.76949
G1 X152.382 Y119.202 E2.78837
G1 X152.073 Y119.68 E2.8073
G1 X151.692 Y120.103 E2.82623
G1 X151.251 Y120.46 E2.8451
G1 X150.757 Y120.744 E2.86406
G1 X150.226 Y120.945 E2.88294
G1 X149.732 Y121.053 E2.89976
G1 X148.985 Y121.099 E2.92465
G1 X101.436 Y121.1 E4.50614
G1 X100.738 Y121.091 E4.52935
G1 X100.14 Y121.032 E4.54934
G1 X99.59 Y120.886 E4.56827
G1 X99.07 Y120.655 E4.58719
G1 X98.594 Y120.347 E4.60605
G1 X98.171 Y119.966 E4.62498
G1 X97.814 Y119.523 E4.64391
G1 X97.531 Y119.031 E4.66279
G1 X97.329 Y118.499 E4.68171
G1 X97.214 Y117.953 E4.70027
G1 X97.177 Y117.5 E4.71539
G1 X97.175 Y93.126 E5.52607
G1 X97.184 Y92.462 E5.54816
G1 X97.244 Y91.863 E5.56818
G1 X97.39 Y91.314 E5.58707
G1 X97.62 Y90.796 E5.60592
G1 X97.93 Y90.318 E5.62487
G1 X98.31 Y89.896 E5.64376
G0 F3600 X98.564 Y90.205
G1 F1800 X98.955 Y89.884 E5.66059
G1 X99.392 Y89.629 E5.67742
G1 X99.863 Y89.445 E5.69423
G1 X100.599 Y89.315 E5.71909
G1 X101.892 Y89.24 E5.76217
G1 X104.658 Y89.041 E5.85441
G1 X107.686 Y88.731 E5.95564
G1 X108.158 Y88.675 E5.97145
G1 X108.663 Y88.656 E5.98826
G1 X109.162 Y88.715 E6.00497
G1 X110.689 Y89.02 E6.05676
G1 X113.369 Y89.507 E6.14736
G1 X116.06 Y89.918 E6.2379
G1 X118.789 Y90.256 E6.32936
G1 X121.529 Y90.516 E6.42091
G1 X124.247 Y90.698 E6.51151
G1 X126.996 Y90.805 E6.60301
G1 X129.749 Y90.832 E6.69458
G1 X132.431 Y90.783 E6.7838
G1 X135.212 Y90.654 E6.87639
G1 X137.929 Y90.45 E6.96702
G1 X140.666 Y90.167 E7.05853
G1 X143.36 Y89.812 E7.14891
G1 X146.227 Y89.35 E7.2455
G1 X146.739 Y89.301 E7.26261
G1 X148.559 Y89.3 E7.32314
G1 X149.257 Y89.309 E7.34636
G1 X149.761 Y89.356 E7.36319
G1 X150.251 Y89.481 E7.38001
G1 X150.715 Y89.682 E7.39683
G1 X151.141 Y89.953 E7.41362
G1 X151.52 Y90.288 E7.43045
G1 X151.841 Y90.679 E7.44727
G1 X152.096 Y91.115 E7.46407
G1 X152.28 Y91.586 E7.48089
G1 X152.387 Y92.08 E7.4977
G1 X152.424 Y92.74 E7.51969
G1 X152.425 Y116.804 E8.32006
G1 X152.416 Y117.531 E8.34424
G1 X152.37 Y118.034 E8.36104
G1 X152.245 Y118.524 E8.37786
G1 X152.044 Y118.988 E8.39468
G1 X151.773 Y119.415 E8.4115
G1 X151.438 Y119.794 E8.42833
G1 X151.048 Y120.115 E8.44513
G1 X150.612 Y120.371 E8.46194
G1 X150.141 Y120.554 E8.47875
G1 X149.647 Y120.662 E8.49557
G1 X148.985 Y120.699 E8.51762
G1 X101.441 Y120.7 E10.09894
G1 X100.743 Y120.691 E10.12216
G1 X100.239 Y120.644 E10.13899
G1 X99.749 Y120.519 E10.15581
G1 X99.285 Y120.318 E10.17263
G1 X98.859 Y120.047 E10.18942
G1 X98.48 Y119.712 E10.20625
G1 X98.159 Y119.321 E10.22307
G1 X97.904 Y118.885 E10.23987
G1 X97.72 Y118.414 E10.25669
G1 X97.613 Y117.92 E10.2735
G1 X97.576 Y117.467 E10.28862
G1 X97.575 Y93.131 E11.09804
G1 X97.584 Y92.467 E11.12013
G1 X97.631 Y91.963 E11.13696
G1 X97.757 Y91.473 E11.15379
G1 X97.958 Y91.01 E11.17058
G1 X98.229 Y90.583 E11.1874
G1 X98.564 Y90.205 E11.2042
G1 F2100 E10.4042
G0 F3600 X103.928 Y91.847
G0 X105.201 Y94.072
G1 F2100 E11.2042
G1 F1800 X106.601 Y92.594 E11.27191
G1 X108.537 Y92.051 E11.33878
G1 X110.473 Y92.594 E11.40566
G1 X111.873 Y94.072 E11.47337
G1 X112.416 Y95.933 E11.53785
G1 X111.874 Y97.869 E11.60472
G1 X110.475 Y99.268 E11.67052
G1 X108.538 Y99.81 E11.73742
G1 X106.68 Y99.267 E11.8018
G1 X105.201 Y97.788 E11.87137
G1 X104.658 Y95.931 E11.93572
G1 X105.201 Y94.072 E12.00014
G0 F3600 X105.557 Y94.278
G1 F1800 X106.816 Y92.948 E12.06105
G1 X108.537 Y92.466 E12.12049
G1 X110.258 Y92.948 E12.17993
G1 X111.516 Y94.278 E12.24082
G1 X112 Y95.936 E12.29827
G1 X111.517 Y97.66 E12.35782
G1 X110.266 Y98.911 E12.41666
G1 X108.541 Y99.394 E12.47624
G1 X106.891 Y98.912 E12.53342
G1 X105.556 Y97.577 E12.59621
G1 X105.075 Y95.931 E12.65325
G1 X105.557 Y94.278 E12.71051
G0 F3600 X105.915 Y94.482
G1 F1800 X107.03 Y93.304 E12.76446
G1 X108.537 Y92.882 E12.81651
G1 X110.044 Y93.304 E12.86856
G1 X111.159 Y94.482 E12.92251
G1 X111.584 Y95.938 E12.97296
G1 X111.16 Y97.451 E13.02522
G1 X110.057 Y98.554 E13.0771
G1 X108.544 Y98.978 E13.12936
G1 X107.102 Y98.557 E13.17933
G1 X105.911 Y97.366 E13.23535
G1 X105.492 Y95.931 E13.28507
G1 X105.915 Y94.482 E13.33528
G1 F2100 E12.53528
G0 F3600 X123.874 Y109.173
G1 F2100 E13.33528
G1 F1800 X124.222 Y108.839 E13.35132
G1 X124.407 Y108.735 E13.35838
G1 X124.895 Y108.608 E13.37515
G1 X125.105 Y108.608 E13.38213
G1 X125.593 Y108.735 E13.39891
G1 X125.778 Y108.839 E13.40596
G1 X126.126 Y109.173 E13.42201
G1 X126.244 Y109.364 E13.42947
G1 X126.385 Y109.828 E13.4456
G1 X126.395 Y110.051 E13.45303
G1 X126.294 Y110.524 E13.46911
G1 X126.046 Y110.923 E13.48474
G1 X125.878 Y111.085 E13.4925
G1 X125.461 Y111.317 E13.50837
G1 X125 Y111.396 E13.52393
G1 X124.534 Y111.316 E13.53966
G1 X124.326 Y111.222 E13.54725
G1 X123.949 Y110.918 E13.56336
G1 X123.702 Y110.516 E13.57905
G1 X123.639 Y110.304 E13.5864
G1 X123.616 Y109.82 E13.60252
G1 X123.757 Y109.364 E13.6184
G1 X123.874 Y109.173 E13.62585
G0 F3600 X124.187 Y109.428
G1 F1800 X124.464 Y109.162 E13.63862
G1 X124.557 Y109.11 E13.64216
G1 X124.946 Y109.008 E13.65554
G1 X125.054 Y109.008 E13.65913
G1 X125.443 Y109.11 E13.67251
G1 X125.536 Y109.162 E13.67605
G1 X125.813 Y109.428 E13.68882
G1 X125.875 Y109.528 E13.69274
G1 X125.988 Y109.9 E13.70567
G1 X125.994 Y110.016 E13.70953
G1 X125.918 Y110.371 E13.72161
G1 X125.733 Y110.669 E13.73327
G1 X125.636 Y110.762 E13.73774
G1 X125.326 Y110.934 E13.74953
G1 X124.999 Y110.991 E13.76057
G1 X124.655 Y110.932 E13.77218
G1 X124.534 Y110.877 E13.7766
G1 X124.254 Y110.651 E13.78857
G1 X124.07 Y110.351 E13.80028
G1 X124.036 Y110.236 E13.80426
G1 X124.018 Y109.872 E13.81639
G1 X124.124 Y109.531 E13.82826
G1 X124.187 Y109.428 E13.83228
G0 F3600 X124.5 Y109.682
G1 F1800 X124.704 Y109.486 E13.84169
G1 X124.709 Y109.483 E13.84188
G1 X124.998 Y109.408 E13.85181
G1 X125.291 Y109.483 E13.86187
G1 X125.296 Y109.486 E13.86207
G1 X125.5 Y109.682 E13.87147
G1 X125.506 Y109.692 E13.87186
G1 X125.591 Y109.969 E13.8815
G1 X125.591 Y109.985 E13.88203
G1 X125.541 Y110.219 E13.88999
G1 X125.418 Y110.417 E13.89774
G1 X125.399 Y110.436 E13.89864
G1 X125.193 Y110.551 E13.90648
G1 X124.999 Y110.584 E13.91303
G1 X124.769 Y110.545 E13.92079
G1 X124.746 Y110.534 E13.92164
G1 X124.561 Y110.385 E13.92954
G1 X124.439 Y110.186 E13.9373
G1 X124.433 Y110.168 E13.93793
G1 X124.421 Y109.922 E13.94612
G1 X124.491 Y109.696 E13.95399
G1 X124.5 Y109.682 E13.95455
G0 F3600 X124.828 Y109.898
;TYPE:SUPPORT
G1 F1967.2 X124.9 Y109.828 E13.9576
G1 X124.999 Y109.803 E13.96071
G1 X125.168 Y109.894 E13.96655
G1 X125.198 Y109.992 E13.96967
G1 X125.144 Y110.13 E13.97418
G1 X124.919 Y110.18 E13.98119
G1 X124.809 Y110.058 E13.98619
G1 X124.828 Y109.898 E13.9911
G1 F2100 E13.1911
G0 F3600 X110.805 Y97.235
G1 F2100 E13.9911
G1 F1800 X109.843 Y98.197 E14.03635
G1 X108.546 Y98.56 E14.08114
G1 X107.314 Y98.202 E14.12381
G1 X106.266 Y97.15 E14.1732
G1 X105.909 Y95.927 E14.21558
G1 X106.271 Y94.687 E14.25854
G1 X107.244 Y93.658 E14.30564
G1 X108.535 Y93.296 E14.35024
G1 X109.824 Y93.658 E14.39477
G1 X110.801 Y94.687 E14.44196
G1 X111.167 Y95.942 E14.48544
G1 X110.805 Y97.235 E14.5301
G1 F2100 E13.7301
;MESH:sensor houder V3.STL
G0 F3600 X110.805 Y101.835
G0 X110.805 Y102.92
G0 X123.663 Y112.392
G0 X124.974 Y113.2
G0 X125 Y112.896
;TYPE:WALL-INNER
G1 F2100 E14.5301
G1 F1800 X124.453 Y112.848 E14.54837
G1 X123.983 Y112.715 E14.56461
G1 X123.623 Y112.551 E14.57777
G1 X123.217 Y112.284 E14.59393
G1 X122.785 Y111.874 E14.61374
G1 X122.503 Y111.477 E14.62994
G1 X122.289 Y111.03 E14.64642
G1 X122.157 Y110.565 E14.6625
G1 X122.1 Y110.075 E14.6789
G1 X122.13 Y109.573 E14.69563
G1 X122.244 Y109.102 E14.71175
G1 X122.392 Y108.737 E14.72485
G1 X122.703 Y108.229 E14.74466
G1 X123.032 Y107.872 E14.76081
G1 X123.417 Y107.573 E14.77702
G1 X123.756 Y107.381 E14.78998
G1 X124.321 Y107.18 E14.80992
G1 X124.804 Y107.108 E14.82617
G1 X125.192 Y107.108 E14.83907
G1 X125.678 Y107.179 E14.85541
G1 X126.149 Y107.339 E14.87195
G1 X126.581 Y107.572 E14.88828
G1 X127.044 Y107.944 E14.90803
G1 X127.355 Y108.312 E14.92406
G1 X127.61 Y108.743 E14.94071
G1 X127.782 Y109.197 E14.95686
G1 X127.88 Y109.679 E14.97322
G1 X127.896 Y110.092 E14.98697
G1 X127.844 Y110.559 E15.00259
G1 X127.669 Y111.125 E15.0223
G1 X127.493 Y111.477 E15.03539
G1 X127.211 Y111.874 E15.05159
G1 X126.779 Y112.284 E15.07139
G1 X126.373 Y112.551 E15.08756
G1 X125.919 Y112.748 E15.10402
G1 X125.492 Y112.859 E15.11869
G1 X125 Y112.896 E15.1351
G0 F3600 X124.974 Y113.2
G0 X125.939 Y112.987
G0 X148.085 Y103.4
G0 X148.085 Y102.981
G1 F1800 X147.724 Y103.1 E15.14774
G1 X102.272 Y103.1 E16.65948
G1 X101.911 Y102.98 E16.67214
G1 F1904.8 X101.702 Y102.6 E16.68577
G1 F2039.7 X101.697 Y97.248 E16.84286
G1 F1621.6 X101.871 Y96.713 E16.86363
G1 X102.697 Y96.673 E16.89416
G1 F2057.1 X102.697 Y96.323 E16.90435
G1 F1621.6 X101.871 Y96.283 E16.93488
G1 F1614.3 X101.702 Y95.848 E16.95218
G1 F2039.7 X101.697 Y94 E17.00643
G1 F1739.1 X101.82 Y93.548 E17.02255
G1 F1726.6 X102.172 Y93.43 E17.03542
G1 F2039.7 X102.697 Y93.425 E17.05083
G1 F2057.1 X102.697 Y93.075 E17.06102
G1 F2039.7 X102.142 Y93.078 E17.07731
G1 F1870.1 X101.437 Y93.14 E17.09997
G1 F1884.8 X101.347 Y94 E17.12743
G1 F2039.7 X101.35 Y95.878 E17.18256
G1 F1614.3 X101.441 Y96.498 E17.2058
G1 F1621.6 X101.347 Y97.248 E17.2337
G1 F2057.1 X101.347 Y102.5 E17.38655
G1 F1920 X101.372 Y103.25 E17.40995
G1 F1800 X101.372 Y116.9 E17.86395
G1 X148.624 Y116.9 E19.43556
G1 X148.624 Y103.25 E19.88956
G1 F1904.8 X148.647 Y102.63 E19.90906
G1 F2045.5 X148.649 Y97.248 E20.06658
G1 F1621.6 X148.556 Y96.498 E20.09448
G1 F1614.3 X148.647 Y95.878 E20.11772
G1 F2045.5 X148.649 Y94 E20.17269
G1 F1967.2 X148.563 Y93.162 E20.19833
G1 X147.724 Y93.075 E20.224
G1 F2057.1 X147.299 Y93.075 E20.23637
G1 X147.299 Y93.425 E20.24655
G1 X147.724 Y93.425 E20.25892
G1 F1739.1 X148.176 Y93.548 E20.27505
G1 X148.299 Y94 E20.29117
G1 F2045.5 X148.294 Y95.848 E20.34526
G1 F1614.3 X148.126 Y96.283 E20.36255
G1 F1621.6 X147.299 Y96.323 E20.39312
G1 F2057.1 X147.299 Y96.673 E20.40331
G1 F1818.2 X148.118 Y96.69 E20.43028
G1 X148.299 Y97.248 E20.4496
G1 F2045.5 X148.294 Y102.6 E20.60624
G1 F1904.8 X148.085 Y102.981 E20.6199
G0 F3600 X147.845 Y102.661
;TYPE:WALL-OUTER
G1 F1800 X147.724 Y102.7 E20.62413
G1 X102.272 Y102.7 E22.13587
G1 X102.151 Y102.66 E22.14011
G1 X102.074 Y102.535 E22.14499
G1 X102.072 Y97.248 E22.32084
G1 X102.152 Y97.087 E22.32682
G1 X102.254 Y97.048 E22.33045
G1 X103.072 Y97.048 E22.35766
G1 X103.072 Y95.948 E22.39424
G1 X102.254 Y95.948 E22.42145
G1 X102.152 Y95.909 E22.42508
G1 X102.074 Y95.783 E22.43001
G1 X102.072 Y94 E22.48931
G1 X102.13 Y93.858 E22.49442
G1 X102.237 Y93.802 E22.49843
G1 X103.072 Y93.8 E22.5262
G1 X103.072 Y92.7 E22.56279
G1 X100.973 Y92.701 E22.6326
G1 X100.972 Y117.3 E23.45077
G1 X149.024 Y117.3 E25.04899
G1 X149.024 Y92.7 E25.86719
G1 X146.924 Y92.7 E25.93703
G1 X146.924 Y93.8 E25.97362
G1 X147.724 Y93.8 E26.00023
G1 X147.866 Y93.858 E26.00533
G1 X147.924 Y94 E26.01043
G1 X147.922 Y95.783 E26.06973
G1 X147.845 Y95.909 E26.07464
G1 X147.724 Y95.948 E26.07887
G1 X146.924 Y95.948 E26.10548
G1 X146.924 Y97.048 E26.14207
G1 X147.724 Y97.048 E26.16867
G1 X147.845 Y97.087 E26.1729
G1 X147.924 Y97.248 E26.17887
G1 X147.922 Y102.535 E26.35471
G1 X147.845 Y102.661 E26.35962
G0 F3600 X147.724 Y102.7
G0 X147.651 Y102.7
G0 X147.651 Y103.4
G0 X126.046 Y112.963
G0 X125.074 Y113.197
G0 X125.015 Y112.496
G1 F1800 X124.556 Y112.462 E26.37493
G1 X124.149 Y112.351 E26.38896
G1 X123.759 Y112.17 E26.40326
G1 X123.418 Y111.934 E26.41706
G1 X123.107 Y111.636 E26.43138
G1 X122.861 Y111.298 E26.44529
G1 X122.672 Y110.914 E26.45952
G1 X122.553 Y110.511 E26.4735
G1 X122.501 Y110.127 E26.48639
G1 X122.52 Y109.66 E26.50193
G1 X122.614 Y109.252 E26.51586
G1 X122.762 Y108.888 E26.52893
G1 X123.002 Y108.495 E26.54424
G1 X123.282 Y108.184 E26.55816
G1 X123.613 Y107.921 E26.57222
G1 X123.984 Y107.715 E26.58634
G1 X124.352 Y107.583 E26.59934
G1 X124.771 Y107.51 E26.61349
G1 X125.225 Y107.51 E26.62859
G1 X125.649 Y107.583 E26.6429
G1 X126.013 Y107.715 E26.65577
G1 X126.414 Y107.94 E26.67107
G1 X126.743 Y108.208 E26.68518
G1 X127.015 Y108.522 E26.699
G1 X127.223 Y108.858 E26.71214
G1 X127.392 Y109.284 E26.72739
G1 X127.476 Y109.66 E26.7402
G1 X127.495 Y110.125 E26.75568
G1 X127.447 Y110.509 E26.76855
G1 X127.311 Y110.946 E26.78377
G1 X127.117 Y111.327 E26.79799
G1 X126.866 Y111.662 E26.81191
G1 X126.553 Y111.954 E26.82615
G1 X126.207 Y112.187 E26.84003
G1 X125.816 Y112.362 E26.85427
G1 X125.403 Y112.468 E26.86846
G1 X125.015 Y112.496 E26.88139
G0 F3600 X124.816 Y112.482
G0 X124.756 Y113.181
G0 X125.823 Y113.021
G0 X147.72 Y103.48
;TYPE:SKIN
G1 F1800 X148.244 Y103.318 E26.89964
G1 X148.244 Y116.52 E27.33874
G1 X101.752 Y116.52 E28.88507
G1 X101.752 Y103.318 E29.32417
G1 X102.238 Y103.48 E29.34121
G1 X147.72 Y103.48 E30.85394
G0 F3600 X126.046 Y112.963
G0 X124.982 Y113.272
G1 F1800 X125.538 Y113.236 E30.87247
G1 X126.007 Y113.118 E30.88856
G1 X126.528 Y112.896 E30.9074
G1 X126.985 Y112.605 E30.92542
G1 X127.4 Y112.228 E30.94406
G1 X127.739 Y111.795 E30.96235
G1 X128.009 Y111.29 E30.9814
G1 X128.191 Y110.747 E31.00045
G1 X128.276 Y110.081 E31.02278
G1 X128.257 Y109.632 E31.03773
G1 X128.153 Y109.116 E31.05523
G1 X127.964 Y108.605 E31.07335
G1 X127.662 Y108.087 E31.0933
G1 X127.258 Y107.612 E31.11404
G1 X126.759 Y107.235 E31.13484
G1 X126.303 Y106.991 E31.15204
G1 X125.736 Y106.801 E31.17193
G1 X125.216 Y106.729 E31.18939
G1 X124.668 Y106.736 E31.20762
G1 X124.114 Y106.839 E31.22636
G1 X123.588 Y107.037 E31.24505
G1 X123.121 Y107.312 E31.26308
G1 X122.666 Y107.691 E31.28277
G1 X122.306 Y108.124 E31.3015
G1 X122.05 Y108.568 E31.31855
G1 X121.886 Y108.964 E31.33281
